FINK
CUT[SCHAUST SO FREUNDLICH AUS]
REG[Europa, Mitteleuropa, Deutschland]
KEY[F0962  16 Bb 3/4]
MEL[-5_1_  3_2_1__-6_1_  -5__.0_
    -5_1_  3_2_1__-6_1_  -5__.0_
    -5_1_  -7_2_-5__-4#_-5_  -6__-5_0_
    -5_-6_  -7_-73-7__-7_-7_  -7___
    -7_-7_  2_.1-5__1#_1#_  3_.22__
    -6_2_  -5___-6_-7_  1__0__
    -5_.-6  -5_.33__3__  3_5_4_1#_2__
    -7_.66__-7__  3__-1__ //] >>
FCT[Liebes - Lied]
